svg/arrange_send_backward.svg

<svg xmlns="http://www.w3.org/2000/svg" viewBox="0 0 24 24"><path d="M2 2h14v14H2zm20 6v14H8v-4h10V8zM4 4v10h10V4z"/></svg>

<?xml version="1.0" encoding="UTF-8"?><!DOCTYPE svg PUBLIC "-//W3C//DTD SVG 1.1//EN" "http://www.w3.org/Graphics/SVG/1.1/DTD/svg11.dtd"><svg xmlns="http://www.w3.org/2000/svg" xmlns:xlink="http://www.w3.org/1999/xlink" version="1.1" id="mdi-arrange-send-backward" width="24" height="24" viewBox="0 0 24 24"><path d="M2,2H16V16H2V2M22,8V22H8V18H18V8H22M4,4V14H14V4H4Z" /></svg>
